X:465
%%etbk:tnset id:211,pos:1,rep:3,ant:
%%etbk:pldat 2015-11-04T15:39,2015-10-26T18:38,2015-10-06T17:03,2014-10-30T18:40,2014-10-29T16:54,2014-10-27T18:45,2014-10-10T15:47,2014-10-03T16:00,2014-09-30T11:23,2013-10-30T15:11,2013-10-29T15:13,2013-10-28T18:03
T:Lord of the Dance
H: Created 2013-02-19 /  Modified 2013-03-06
M:4/4
L:1/4
R: song
K: Cmaj
G,|"C"CC/2C/2 E/2D/2E/2F/2| GG/2G/2 EE/2E/2|"G"DD DD/2E/2|\
F/2E/2D/2C/2 "G,7"B,G,/2G,/2|
"C"CC/2C/2 E/2D/2E/2F/2|GG/2G/2 EE/2E/2|"G"DD D/F/E/2D/2|\
"C"CC C2|
"C"G2 E3/2D/2|E/2F/2E/2D/2 C2| E/C/E/2F/2 GF/2E/2|"G"DD DG,/2G,/2|
"C"CC C3/2D/2| E/2D/2E/2F/2 GF/2E/2|"G"DD D/F/E/2D/2|"C"CCC2||
"Polka Intermezzo 1""C"!1!C/!2!B,/ !1!C/D/ !3!EE | !1!C/!2!B,/2 !1!C/D/ !3!EE | "G"!5!G/F/ E/F/!2!DD | !5!G/F/ E/F/!2!DD | 
"C"!1!C/!2!B,/ !1!C/D/ !3!EE | !1!C/!2!B,/2 !1!C/D/ !3!EE | "G"!5!G/F/ E/F/ !2!D/F/ E/D/ | "C"!1!CCCz ||
"Polka Intermezzo 2""C"!2!G2 !1!E!2!G | !5!c2!2!G2 | "G"!5!G/F/ E/F/!2!DD | !5!G/F/ E/F/!1!DD | 
"C"!2!G2 !1!E!2!G | !5!c2!2!G2 | "G"!5!G/F/ E/F/ !2!D/F/ E/D/ | "C"!1!CCCz ||


